X:1
T:Slängpolska ur Jeppa Nilssons notbok
R:Slängpolska
S:Jeppa Nilsson
O:Björnstorp, Skåne
M:3/4
L:1/16
K:A
A2AG A2c2 (B2A2) | (AB)cd e2ef e2(c2 | A2)AG A2c2 (B2A2) | (AB)cd e4 e4 :|
|: A2AG A2c2 (B2A2) | (E3F D3)(F E4) | (cB)AG (AB)cd (ef)de | (cB)AG (G2A2) A4 :|

